resources/lib/oojs-ui/themes/mediawiki/images/icons/map-ltr.svg

<?xml version="1.0" encoding="utf-8"?>
<svg xmlns="http://www.w3.org/2000/svg" width="24" height="24" viewBox="0 0 24 24">
    <path d="M15 6l-6-2-6 2v15l6-2 6 2 6-2v-15l-6 2zm-6.3 12.1l-4.7 1.5v-12.9l5-1.7v12.9l-.3.2zm11.3.2l-5 1.7v-12.9l.3-.1 4.7-1.6v12.9z"/>
</svg>

<?xml version="1.0" encoding="utf-8"?>
<svg xmlns="http://www.w3.org/2000/svg" width="24" height="24" viewBox="0 0 24 24">
    <path d="M15 6L9 4 3 6v15l6-2 6 2 6-2V4l-6 2zM8.7 18.1L4 19.6V6.7L9 5v12.9l-.3.2zm11.3.2L15 20V7.1l.3-.1L20 5.4v12.9z"/>
</svg>
